X:43
T:Scenes That Are Brightest
T:from 'Maritana' 1846
C:William Vincent Wallace
C:Bush Hotel, Launceston, Australia
S:from 'Maritana'
S:https://nla.obj-169600771
H:Eyewitness heard Wallace perform the aria beside the derwent river six years before the London premiere of the opera 'Maritana'
H:Wallace lived in Australia for just three years, the bulk of his life and career elsewhere. 
R:Opera Aria
M:4/4
L:1/8
K:Cmaj
[I:MIDI=program 58]G4E2c2 | G4E2(3G,CF | (E4D2)(3B,DF | 
w:Scenes that are bright-est may**charm*a**
w:words can not scat-ter the** thoughts *we**
(A4G2)z2|G4E2c2 | G4E2(3G,CF | (G4D2)(3G,B,D | 
w:while*  hearts which are light-est And** eyes* that**
w:fear*For though they flat-ter they** mock*the
C4z3E | A4B2c2 | B4E2z2 | (c2>BA)B2E2|
w:smile Yet o'er them a-bove us, though** nat-ure
w:ear. Hopes will still de-cieve us, with** tear-ful
(A4_A3)G | G4E2c2 | G4E2(3G,CF | (E4D2) (3B,DF | 
w:beam* with none* to love us how** sad* they**
w:cost*And when* they leave us The** heart* is
(A4G2)zG | (G4E2)c2 |(G4E2)(3CEA | G4(8d/2 B/2 G/2 ^G/2 A/2 F/2 D/2 B,/2 E3/2D/2|C4z4 :| 
w:seem* with none* to love us How** Sad******** They* seem.
w:lost.* And when* they leave us the **heart******** is* lost.
